X: 1
T: Dowry, The
M: 4/4
L: 1/8
R: reel
K: Dmaj
FA~A2 FAEc|dAFA BGEG|~F3A defg|a2ag efge|
f2ec dAFA|dAFA BAEG|~F3A defg|a2ag eadA|
FA~A2 fAeA|dAFA BGEC|DEFA defg|a2ag efge|
f2ec dAFA|dAFA BAEG|~F3A defg|a2ag eadf|
|:afdf efdA|FAdA GBef|a2df efdA|FAef e2df|
a2df efdA|FAdA GBef|a2ag efge|1a2ag eadf:|2a2ag eadA||
